assets/icons/24px/stroke/academic-book-24px.svg

<svg width="24" height="24" viewBox="0 0 24 24" fill="none" xmlns="http://www.w3.org/2000/svg">
<path fill-rule="evenodd" clip-rule="evenodd" d="M8.93417 1C8.95604 1 8.97799 1 9 1L15.0658 1C15.9523 0.999953 16.7161 0.99991 17.3278 1.08215C17.9833 1.17028 18.6117 1.36902 19.1213 1.87868C19.6309 2.38828 19.8297 3.01644 19.9179 3.67183C20.0001 4.2833 20.0001 5.0468 20 5.93284L20 14.4354C20 14.9876 19.5523 15.4354 19 15.4354C18.4477 15.4354 18 14.9876 18 14.4354V5.99869C18 5.02804 17.9979 4.40069 17.9357 3.93843C17.8774 3.50501 17.7833 3.36909 17.7071 3.2929C17.631 3.21677 17.495 3.12263 17.0613 3.06431C16.5988 3.00213 15.9711 3 15 3H9C8.02893 3 7.40122 3.00213 6.93871 3.06431C6.50497 3.12263 6.36902 3.21677 6.2929 3.2929C6.21677 3.36902 6.12263 3.50497 6.06431 3.93871C6.00213 4.40122 6 5.02893 6 6V20H4V6C4 5.97799 4 5.95604 4 5.93417C3.99995 5.04769 3.99991 4.28387 4.08215 3.67221C4.17028 3.0167 4.36902 2.38835 4.87868 1.87868C5.38835 1.36902 6.0167 1.17028 6.67221 1.08215C7.28387 0.99991 8.04769 0.999953 8.93417 1Z" fill="white"/>
<path fill-rule="evenodd" clip-rule="evenodd" d="M17.0613 3.06431C16.5988 3.00213 15.9711 3 15 3H10V17H15C15.9711 17 16.5988 16.9979 17.0613 16.9357C17.495 16.8774 17.631 16.7832 17.7071 16.7071C17.7833 16.631 17.8774 16.495 17.9357 16.0614C17.9979 15.599 18 14.9714 18 14.0005V5.9988C18 5.02811 17.9979 4.40073 17.9357 3.93846C17.8774 3.50501 17.7833 3.36909 17.7071 3.2929C17.631 3.21677 17.495 3.12263 17.0613 3.06431ZM17.3278 1.08215C17.9833 1.17028 18.6117 1.36902 19.1213 1.87868C19.6309 2.38828 19.8297 3.01646 19.9179 3.67186C20.0001 4.28335 20.0001 5.04689 20 5.93297V14.0664C20.0001 14.9527 20.0001 15.7164 19.9179 16.3279C19.8297 16.9834 19.631 17.6117 19.1213 18.1213C18.6117 18.631 17.9833 18.8297 17.3278 18.9179C16.7161 19.0001 15.9523 19.0001 15.0658 19L8 19V1H15C15.022 1 15.044 1 15.0658 1C15.9523 0.999953 16.7161 0.99991 17.3278 1.08215Z" fill="white"/>
<path fill-rule="evenodd" clip-rule="evenodd" d="M20 16.4211C20 16.6406 20 16.8387 19.9925 17.0002C19.9851 17.1604 19.9682 17.3707 19.8978 17.5823C19.8959 17.5878 19.8939 17.5939 19.8918 17.6004C19.8659 17.6792 19.8161 17.8308 19.7297 17.9766C19.6432 18.1224 19.5341 18.2388 19.4774 18.2993C19.4727 18.3043 19.4683 18.309 19.4644 18.3133C19.3566 18.4291 19.2342 18.516 19.1555 18.5692C19.0646 18.6305 18.9597 18.6942 18.8486 18.7588C18.6298 18.8861 18.3303 19.0499 17.9557 19.2548L17.9413 19.2627C17.7879 19.3466 17.6841 19.4397 17.6185 19.5378C17.5588 19.627 17.5 19.7644 17.5 20C17.5 20.2722 17.5782 20.4192 17.6588 20.5161C17.7543 20.6306 17.9075 20.736 18.1214 20.8215C18.3331 20.9062 18.5589 20.9532 18.7415 20.9775C18.8303 20.9893 18.9026 20.995 18.9496 20.9977C18.973 20.999 18.9897 20.9996 18.9986 20.9999L19.0053 21C19.5552 21.0029 20 21.4495 20 22C20 22.5523 19.5523 23 19 23L18.9983 23L6.99999 23C5.34314 23 4 21.6568 4 20C4 18.3431 5.34314 17 6.99999 17H15.9179V18.4842C16.197 18.0441 16.5846 17.7251 16.9817 17.5079C17.374 17.2934 17.6498 17.1425 17.8426 17.0303C17.9077 16.9923 17.9567 16.9627 17.9929 16.9398C17.9935 16.9305 17.9941 16.9198 17.9947 16.9077C17.9997 16.7982 18 16.6473 18 16.3999V14H20V16.4211ZM15.666 19H6.99999C6.44771 19 6 19.4477 6 20C6 20.5523 6.44771 21 6.99999 21H15.6669C15.559 20.6991 15.5 20.3653 15.5 20C15.5 19.6252 15.5609 19.2929 15.666 19Z" fill="white"/>
</svg>

<svg width="24" height="24" fill="none" xmlns="http://www.w3.org/2000/svg"><path fill-rule="evenodd" clip-rule="evenodd" d="M8.934 1h6.132c.886 0 1.65 0 2.262.082.655.088 1.284.287 1.793.797.51.51.709 1.137.797 1.793.082.611.082 1.375.082 2.26v8.503a1 1 0 0 1-2 0V6c0-.971-.002-1.598-.064-2.06-.059-.434-.153-.57-.229-.646-.076-.076-.212-.17-.646-.229C16.6 3.002 15.971 3 15 3H9c-.971 0-1.599.002-2.061.064-.434.059-.57.153-.646.229-.076.076-.17.212-.229.646C6.002 4.4 6 5.029 6 6v14H4V6v-.066c0-.886 0-1.65.082-2.262.088-.655.287-1.284.797-1.793.51-.51 1.138-.709 1.793-.797C7.284 1 8.048 1 8.934 1z" fill="#fff"/><path fill-rule="evenodd" clip-rule="evenodd" d="M17.061 3.064C16.6 3.002 15.971 3 15 3h-5v14h5c.971 0 1.599-.002 2.061-.064.434-.059.57-.153.646-.229.076-.076.17-.212.229-.646.062-.462.064-1.09.064-2.06V5.998c0-.97-.002-1.598-.064-2.06-.059-.434-.153-.57-.229-.646-.076-.076-.212-.17-.646-.229zm.267-1.982c.655.088 1.284.287 1.793.797.51.51.709 1.137.797 1.793C20 4.283 20 5.047 20 5.933v8.133c0 .887 0 1.65-.082 2.262-.088.655-.287 1.284-.797 1.793-.51.51-1.138.709-1.793.797-.612.082-1.376.082-2.262.082H8V1h7.066c.886 0 1.65 0 2.262.082z" fill="#fff"/><path fill-rule="evenodd" clip-rule="evenodd" d="M20 16.421c0 .22 0 .418-.008.58a2.147 2.147 0 0 1-.1.6c-.026.078-.076.23-.162.376-.087.145-.196.262-.253.322l-.013.014a1.79 1.79 0 0 1-.308.256c-.091.062-.196.125-.307.19-.22.127-.519.29-.893.496l-.015.008a.889.889 0 0 0-.322.275c-.06.089-.119.226-.119.462 0 .272.078.42.159.516.095.115.248.22.462.306a2.65 2.65 0 0 0 .829.176l.049.002h.006A1 1 0 0 1 19 23H7a3 3 0 0 1 0-6h8.918v1.484c.279-.44.667-.759 1.064-.976.392-.215.668-.366.86-.478.066-.038.115-.067.15-.09.002-.01.002-.02.003-.032.005-.11.005-.26.005-.508V14h2v2.421zM15.666 19H7a1 1 0 1 0 0 2h8.667a2.946 2.946 0 0 1-.167-1c0-.375.06-.707.166-1z" fill="#fff"/></svg>
